images/favicon/icon.svg

<svg xmlns="http://www.w3.org/2000/svg" width="512" height="512" style="shape-rendering:geometricPrecision;text-rendering:geometricPrecision;image-rendering:optimizeQuality;fill-rule:evenodd;clip-rule:evenodd"><path fill="#29aeb5" d="M219.5 61.5a40.939 40.939 0 0 1 9 .5c40.813 20.428 57.813 53.429 51 99-4.278 15.893-11.945 29.893-23 42a4.934 4.934 0 0 1-3 .5 4189.275 4189.275 0 0 0-22.5-89 782 782 0 0 0 2 51 889.75 889.75 0 0 0 4.5 39c-.247 2.582-1.58 3.415-4 2.5-38.596-23.755-53.096-57.921-43.5-102.5 4.172-12.67 10.672-24.004 19.5-34 3.379-3.05 6.712-6.05 10-9Z" style="opacity:.931"/><path fill="#29aeb5" d="M129.5 71.5c26.406.593 43.406 13.427 51 38.5-3.806 18.374-14.806 25.374-33 21-19.695-15.597-25.695-35.43-18-59.5Z" style="opacity:.91"/><path fill="#1c838d" d="M352.5 94.5c28.984-1.456 47.484 11.544 55.5 39l1-1c3.535 21.068-2.632 38.568-18.5 52.5-5.245 3.626-10.912 6.126-17 7.5a1009.832 1009.832 0 0 1-29 74.5 307.208 307.208 0 0 1-71 4.5 4034.191 4034.191 0 0 1 48-92.5l-1-1.5a377.167 377.167 0 0 0-4.5 5 6164.412 6164.412 0 0 1-54 89 179.674 179.674 0 0 1-26.5 1 4968.04 4968.04 0 0 1 75.5-111c-5.298-24.074 1.536-43.574 20.5-58.5 6.603-4.177 13.603-7.01 21-8.5Zm-4 19a2.428 2.428 0 0 1 2 .5c-6.653 6.127-11.153 13.627-13.5 22.5l-1-1a122.613 122.613 0 0 1-5 19c-3.835-13.673-1.002-25.673 8.5-36 2.831-2.209 5.831-3.876 9-5Z" style="opacity:.933"/><path fill="#29aeb5" d="M128.5 141.5c28.369-2.251 48.202 9.416 59.5 35 2.155 6.578 2.655 13.245 1.5 20a835.558 835.558 0 0 1-35-20.5c-1.259-.982-2.592-1.315-4-1a442.106 442.106 0 0 0 33.5 29.5c.483.948.649 1.948.5 3-29.477 6.69-51.811-2.81-67-28.5a70.502 70.502 0 0 1-5-23.5c-.153-3.217.514-6.217 2-9 4.789-1.674 9.456-3.34 14-5Z" style="opacity:.888"/><path fill="#29aeb5" d="M232.5 212.5c8.692-.331 17.359.002 26 1a37071.202 37071.202 0 0 1-39 58c-36.523.615-72.19-4.551-107-15.5-6.664-2.486-11.331-6.986-14-13.5 1.618-4.081 4.285-7.248 8-9.5 21.088-9.028 43.088-14.361 66-16a7499.994 7499.994 0 0 0 60-4.5Z" style="opacity:.928"/><path fill="#29aeb5" d="M375.5 224.5c7.567 1.667 15.234 4.167 23 7.5 4.494 2.49 7.494 6.156 9 11-2.342 6.335-6.675 10.669-13 13a223.61 223.61 0 0 1-33 8.5c4.656-13.268 9.323-26.601 14-40Z" style="opacity:.856"/><path fill="#1c838d" d="M83.5 261.5c3.354-.431 6.187.569 8.5 3a298.11 298.11 0 0 0 25.5 8.5c71.998 15.48 144.665 18.813 218 10a989.749 989.749 0 0 0 57-11 454.5 454.5 0 0 0 28-10.5c3.799 2.621 5.965 6.287 6.5 11 1.058 15.582-.775 30.749-5.5 45.5-16.672 48.07-47.839 83.236-93.5 105.5-31.428 13.452-64.262 18.285-98.5 14.5-72.448-12.741-120.948-53.574-145.5-122.5a201.438 201.438 0 0 1-3-16l-1 1a171.225 171.225 0 0 1 .5-32 32.26 32.26 0 0 0 3-7Zm30 49a750.652 750.652 0 0 0 72 87l-1.5 1c-39.464-16.497-62.964-45.83-70.5-88Z" style="opacity:.968"/></svg>

<?xml version="1.0" encoding="UTF-8"?>
<!DOCTYPE svg PUBLIC "-//W3C//DTD SVG 1.1//EN" "http://www.w3.org/Graphics/SVG/1.1/DTD/svg11.dtd">
<svg xmlns="http://www.w3.org/2000/svg" version="1.1" width="512px" height="512px" style="shape-rendering:geometricPrecision; text-rendering:geometricPrecision; image-rendering:optimizeQuality; fill-rule:evenodd; clip-rule:evenodd" xmlns:xlink="http://www.w3.org/1999/xlink">
<g><path style="opacity:0.931" fill="#29aeb5" d="M 219.5,61.5 C 222.518,61.3354 225.518,61.502 228.5,62C 269.313,82.4285 286.313,115.429 279.5,161C 275.222,176.893 267.555,190.893 256.5,203C 255.552,203.483 254.552,203.649 253.5,203.5C 246.305,173.672 238.805,144.005 231,114.5C 231.111,131.507 231.778,148.507 233,165.5C 234.206,178.471 235.706,191.471 237.5,204.5C 237.253,207.082 235.92,207.915 233.5,207C 194.904,183.245 180.404,149.079 190,104.5C 194.172,91.8291 200.672,80.4958 209.5,70.5C 212.879,67.4493 216.212,64.4493 219.5,61.5 Z"/></g>
<g><path style="opacity:0.91" fill="#29aeb5" d="M 129.5,71.5 C 155.906,72.0933 172.906,84.9266 180.5,110C 176.694,128.374 165.694,135.374 147.5,131C 127.805,115.403 121.805,95.5696 129.5,71.5 Z"/></g>
<g><path style="opacity:0.933" fill="#1c838d" d="M 352.5,94.5 C 381.484,93.044 399.984,106.044 408,133.5C 408.333,133.167 408.667,132.833 409,132.5C 412.535,153.568 406.368,171.068 390.5,185C 385.255,188.626 379.588,191.126 373.5,192.5C 364.831,217.68 355.164,242.513 344.5,267C 321.017,271.249 297.35,272.749 273.5,271.5C 289.125,240.415 305.125,209.582 321.5,179C 321.167,178.5 320.833,178 320.5,177.5C 319.01,179.126 317.51,180.792 316,182.5C 298.269,212.288 280.269,241.955 262,271.5C 253.251,272.484 244.418,272.817 235.5,272.5C 260.172,235.152 285.339,198.152 311,161.5C 305.702,137.426 312.536,117.926 331.5,103C 338.103,98.823 345.103,95.9897 352.5,94.5 Z M 348.5,113.5 C 349.239,113.369 349.906,113.536 350.5,114C 343.847,120.127 339.347,127.627 337,136.5C 336.667,136.167 336.333,135.833 336,135.5C 334.838,141.979 333.172,148.313 331,154.5C 327.165,140.827 329.998,128.827 339.5,118.5C 342.331,116.291 345.331,114.624 348.5,113.5 Z"/></g>
<g><path style="opacity:0.888" fill="#29aeb5" d="M 128.5,141.5 C 156.869,139.249 176.702,150.916 188,176.5C 190.155,183.078 190.655,189.745 189.5,196.5C 177.657,189.944 165.99,183.11 154.5,176C 153.241,175.018 151.908,174.685 150.5,175C 161.198,185.422 172.364,195.255 184,204.5C 184.483,205.448 184.649,206.448 184.5,207.5C 155.023,214.19 132.689,204.69 117.5,179C 114.49,171.46 112.824,163.627 112.5,155.5C 112.347,152.283 113.014,149.283 114.5,146.5C 119.289,144.826 123.956,143.16 128.5,141.5 Z"/></g>
<g><path style="opacity:0.928" fill="#29aeb5" d="M 232.5,212.5 C 241.192,212.169 249.859,212.502 258.5,213.5C 245.55,232.798 232.55,252.132 219.5,271.5C 182.977,272.115 147.31,266.949 112.5,256C 105.836,253.514 101.169,249.014 98.5,242.5C 100.118,238.419 102.785,235.252 106.5,233C 127.588,223.972 149.588,218.639 172.5,217C 192.669,215.568 212.669,214.068 232.5,212.5 Z"/></g>
<g><path style="opacity:0.856" fill="#29aeb5" d="M 375.5,224.5 C 383.067,226.167 390.734,228.667 398.5,232C 402.994,234.49 405.994,238.156 407.5,243C 405.158,249.335 400.825,253.669 394.5,256C 383.642,259.692 372.642,262.525 361.5,264.5C 366.156,251.232 370.823,237.899 375.5,224.5 Z"/></g>
<g><path style="opacity:0.968" fill="#1c838d" d="M 83.5,261.5 C 86.854,261.069 89.6873,262.069 92,264.5C 100.38,267.719 108.88,270.553 117.5,273C 189.498,288.48 262.165,291.813 335.5,283C 354.617,279.889 373.617,276.222 392.5,272C 401.877,268.834 411.21,265.334 420.5,261.5C 424.299,264.121 426.465,267.787 427,272.5C 428.058,288.082 426.225,303.249 421.5,318C 404.828,366.07 373.661,401.236 328,423.5C 296.572,436.952 263.738,441.785 229.5,438C 157.052,425.259 108.552,384.426 84,315.5C 82.7848,310.209 81.7848,304.876 81,299.5C 80.6667,299.833 80.3333,300.167 80,300.5C 79.1676,289.818 79.3343,279.151 80.5,268.5C 81.7828,266.27 82.7828,263.937 83.5,261.5 Z M 113.5,310.5 C 135.333,341.329 159.333,370.329 185.5,397.5C 185,397.833 184.5,398.167 184,398.5C 144.536,382.003 121.036,352.67 113.5,310.5 Z"/></g>
</svg>
